X:1
T:Blomqvist, 98.98
T:Blomqvist, 98.98
T:Joel Blomqvist, 1877
T:Public Domain Courtesy of the Cyber Hymnal™
C:Joel Blomqvist, 1877
Z:Public Domain
Z:Courtesy of the Cyber Hymnal™
%%score ( 1 2 ) ( 3 4 )
L:1/8
Q:1/4=90
M:3/4
K:Ab
V:1 treble 
V:2 treble 
V:3 bass 
V:4 bass 
V:1
 [CE][A,C] [B,D] [CE]3 | [CA][Ec] [EB] [DB]2 [CA] | [EA][DEG] F ([CE]2 [A,C]) | %3
 [CE][B,E] [B,D] [A,C]3 | [CE][CA] [Ec] ([Ee]2 d) | [Ec][EB] C [FA]2 [DF] | [DF][DA] [DF] E2 c x | %7
 [EA][DG] [DB] [CA]3 |] %8
V:2
 x6 | x6 | x2 F x3 | x6 | x5 d | x6 | x7 | x6 |] %8
V:3
 [A,,A,][A,,E,] [A,,E,] [A,,A,]3 | [A,,A,][E,A,] [E,G,] [=E,G,]2 [F,A,] | %2
 [C,A,][D,A,] [D,A,] [E,A,]3 | [E,A,][E,G,] [G,,E,] [A,,E,]3 | %4
 [A,,A,][A,,A,] [A,,A,] ([A,C]2 [G,B,]) | A,[E,G,] [F,A,] [D,A,]2 [D,A,] | %6
 [D,A,][F,A,] [D,A,] A,3 A,, | [C,A,][E,B,] [E,G,] [A,,A,]3 |] %8
V:4
 x6 | x6 | x6 | x6 | x6 | A, x5 | x3 C,2 x2 | x6 |] %8

